X:1
T:88
L:1/8
Q:1/4=100
M:4/4
K:G
V:1 treble nm="Piano" snm="Pno."
V:1
 d3 d B2 G2 | E F2 E D4 | z G2 F E2 c2 | B/BB/ A^G A4 | B2 (3Bce d2 D2 | A2 GA E4 | %6
 DG/B/ d>d c2 B2 | A D2 A G4 |] %8

